poorReader/GrnWbBl.svg

<?xml version="1.0" encoding="UTF-8" standalone="no"?>
<!-- Created with Inkscape (http://www.inkscape.org/) -->

<svg
   width="256"
   height="256"
   viewBox="0 0 32 32"
   version="1.1"
   id="svg239"
   inkscape:version="1.2.2 (732a01da63, 2022-12-09)"
   xml:space="preserve"
   sodipodi:docname="GrnWbBl.svg"
   xmlns:inkscape="http://www.inkscape.org/namespaces/inkscape"
   xmlns:sodipodi="http://sodipodi.sourceforge.net/DTD/sodipodi-0.dtd"
   xmlns="http://www.w3.org/2000/svg"
   xmlns:svg="http://www.w3.org/2000/svg"><sodipodi:namedview
     id="namedview241"
     pagecolor="#000000"
     bordercolor="#000000"
     borderopacity="0.25"
     inkscape:showpageshadow="2"
     inkscape:pageopacity="0"
     inkscape:pagecheckerboard="false"
     inkscape:deskcolor="#000000"
     inkscape:document-units="px"
     showgrid="false"
     shape-rendering="auto"
     inkscape:zoom="1.3037281"
     inkscape:cx="-77.470139"
     inkscape:cy="212.46761"
     inkscape:window-width="1920"
     inkscape:window-height="1001"
     inkscape:window-x="1911"
     inkscape:window-y="-9"
     inkscape:window-maximized="1"
     inkscape:current-layer="layer1" /><defs
     id="defs236" /><g
     inkscape:label="Green-Web"
     inkscape:groupmode="layer"
     id="layer1"
     transform="translate(14.271187,15.228813)"><path
       style="fill:#b8f787;stroke-width:0.125;fill-opacity:0.96802324"
       d="M 3.6537705,13.964068 C 3.233668,13.785118 3.103813,13.565218 3.103813,13.032753 c 0,-0.429477 0.46822,-0.886566 0.9081538,-0.886566 0.9994175,0 2.4146362,-0.531666 3.2207474,-1.209965 C 7.847133,10.419223 8.5448317,9.2616457 8.9187605,8.1388395 9.3539167,6.832182 9.8693192,6.470797 10.583889,6.9713007 c 0.639362,0.4478263 0.555428,1.240975 -0.314027,2.9674838 l -0.4308303,0.8555125 0.4136413,-0.08496 c 1.134099,-0.23295 2.025682,-0.9613073 2.517729,-2.0567948 0.192374,-0.4283 0.2557,-0.8313725 0.256296,-1.6313512 C 13.027823,5.5901157 12.663833,4.4170895 11.905993,3.4089382 11.590639,2.9894258 11.309752,2.646187 11.281799,2.646187 c -0.02795,0 -0.300807,0.1908175 -0.606343,0.4240388 C 10.369919,3.303447 9.5731868,3.7956345 8.9049393,4.1639758 6.4056505,5.5415945 5.8359705,6.7346557 6.824618,8.5207133 7.1455817,9.1005545 7.1547505,9.1589233 6.975743,9.482777 6.8709292,9.6724008 6.635658,9.911467 6.4529192,10.014037 5.3592792,10.627881 4.1266255,8.3456957 4.4831967,6.367217 4.7797942,4.7215095 5.613418,3.7758107 8.038713,2.333687 c 1.0397563,-0.6182587 1.636425,-1.0675562 2.0335,-1.53125 0.707248,-0.82590375 1.12045,-0.87556 1.895743,-0.22782125 C 14.681494,2.8417132 15.787504,6.8202295 14.481419,9.6160033 13.452649,11.818166 10.774454,13.23287 8.7392617,12.649183 8.353148,12.538448 8.2449418,12.573203 7.5675917,13.025521 6.381378,13.817643 4.416293,14.288877 3.6537705,13.964068 Z"
       id="path118587"
       inkscape:label="Leaf" /><path
       style="fill:#a0b4e0;stroke-width:0.125;fill-opacity:1"
       d="M 0.3082705,14.009209 C -1.7634857,13.790612 -4.0190416,12.961046 -5.7645237,11.775712 -6.7923395,11.077736 -8.13377,9.8001995 -8.9070714,8.7828495 -9.7167455,7.717647 -10.817229,5.4734395 -11.134416,4.240642 c -0.829911,-3.2255788 -0.519128,-6.344215 0.924979,-9.281955 0.7885868,-1.6042186 1.5872885,-2.7011386 2.799275,-3.8444654 5.1601835,-4.8678556 13.1177663,-4.8678556 18.27795,0 0.478749,0.4516278 1.152359,1.1920144 1.496909,1.6453034 0.809675,1.0652025 1.910159,3.3094099 2.227345,4.542207 0.326264,1.2680725 0.548189,3.3287525 0.437781,4.0650012 L 14.942114,1.9516207 14.741713,1.6426545 C 14.631493,1.472722 14.198447,0.93820825 13.779388,0.45484575 13.088402,-0.34217175 13.002482,-0.50510175 12.856533,-1.2951543 12.596717,-2.7016005 12.783739,-2.603813 10.353672,-2.603813 H 8.2373255 l 0.026994,1.63738875 0.026994,1.63739 -0.9375,0.53591125 -0.9375,0.53591 -0.07296,-2.0265975 C 6.3032245,-1.3984405 6.2295922,-2.3764255 6.179726,-2.4571118 6.113136,-2.5648555 4.928166,-2.603813 1.7175135,-2.603813 c -4.0458243,0 -4.3782391,0.016299 -4.4613731,0.21875 -0.1171619,0.2853175 -0.1171619,6.0271825 0,6.3125 0.082307,0.2004362 0.3624497,0.21875 3.3462906,0.21875 H 3.8588943 L 3.604803,4.6442457 C 3.4650543,4.918177 3.306763,5.3541145 3.2530468,5.6129957 l -0.097666,0.4706913 -2.76714625,0.0625 -2.76714695,0.0625 0.405877,1.2504787 c 0.8069275,2.4860875 2.07380495,4.2751953 3.234325,4.5675713 l 0.5300237,0.133533 0.00343,0.992958 c 0.00318,0.920599 -0.015045,0.991748 -0.25,0.976332 -0.1393837,-0.0091 -0.6957925,-0.0633 -1.23646625,-0.12035 z M -2.9013658,10.364937 C -3.3571702,9.4909258 -3.9929412,7.7799295 -4.2715647,6.677437 L -4.405823,6.146187 h -1.9342501 -1.93425 l 0.3308452,0.53125 c 1.0483757,1.6834137 2.7216145,3.235185 4.4448873,4.122214 0.503197,0.259012 0.9497647,0.471069 0.9923729,0.471235 0.042608,1.25e-4 -0.1352085,-0.407511 -0.3951481,-0.905949 z M -4.833687,0.771187 v -3.375 h -2.1477236 -2.1477238 l -0.2209505,0.96875 c -0.2951238,1.29396 -0.2951238,3.51854 0,4.8125 l 0.2209505,0.96875 h 2.1477238 2.1477236 z m 0.4892245,-5.53125 c 0.5977226,-2.1284796 0.8355309,-2.8133904 1.3178126,-3.7954282 0.316922,-0.6453271 0.5462387,-1.1726093 0.5095924,-1.1717384 -0.1516154,0.0036 -1.5254731,0.7492201 -2.1754929,1.1806786 -0.8873931,0.589018 -2.299651,1.9973726 -2.8806572,2.8726954 -0.7616894,1.1475336 -0.8552955,1.0700426 1.2925701,1.0700426 1.4071023,0 1.9035474,-0.040063 1.936175,-0.15625 z m 10.1416755,0 C 4.9454992,-7.4896823 4.3519842,-8.7134409 3.4137905,-9.6743974 2.2589517,-10.857255 1.2406368,-10.860202 0.06452675,-9.6840914 c -0.9531175,0.9531165 -1.54041875,2.1560091 -2.40411345,4.9240284 -0.038324,0.1228243 0.8320072,0.15625 4.0683997,0.15625 3.2363925,0 4.1067238,-0.033426 4.0684,-0.15625 z M 11.557656,-4.7938 C 11.239468,-5.6229819 9.652663,-7.4329279 8.4528018,-8.3352671 7.883728,-8.7632311 6.1708368,-9.7263898 5.9755905,-9.7282028 5.939443,-9.7285403 6.176468,-9.1803755 6.502313,-8.510063 c 0.3258463,0.6703125 0.7396162,1.753125 0.9194887,2.40625 0.1798738,0.653125 0.348895,1.2578125 0.3756038,1.34375 0.036046,0.1159805 0.5362537,0.15625 1.9408575,0.15625 1.641696,0 1.882642,-0.02516 1.819393,-0.189987 z"
       id="path118583"
       inkscape:label="Globe" /></g></svg>

<svg width="256" height="256" viewBox="0 0 32 32" xml:space="preserve" xmlns="http://www.w3.org/2000/svg"><path style="fill:#b8f787;stroke-width:.125;fill-opacity:.96802324" d="M3.654 13.964c-.42-.179-.55-.399-.55-.931 0-.43.468-.887.908-.887 1 0 2.415-.531 3.22-1.21.615-.517 1.313-1.674 1.687-2.797.435-1.307.95-1.668 1.665-1.168.64.448.555 1.241-.314 2.968l-.431.855.414-.085c1.134-.233 2.025-.961 2.517-2.056.193-.429.256-.832.257-1.632 0-1.43-.363-2.604-1.121-3.612-.315-.42-.596-.763-.624-.763-.028 0-.301.191-.607.424-.305.233-1.102.726-1.77 1.094-2.5 1.378-3.069 2.57-2.08 4.357.32.58.33.638.15.962a1.61 1.61 0 0 1-.522.531c-1.094.614-2.326-1.668-1.97-3.647.297-1.645 1.13-2.591 3.556-4.033 1.04-.619 1.636-1.068 2.033-1.532.707-.825 1.12-.875 1.896-.227 2.713 2.267 3.82 6.245 2.513 9.041-1.028 2.202-3.707 3.617-5.742 3.033-.386-.11-.494-.076-1.171.377-1.187.792-3.152 1.263-3.914.938z" transform="translate(14.271 15.229)"/><path style="fill:#a0b4e0;stroke-width:.125;fill-opacity:1" d="M.308 14.01c-2.071-.22-4.327-1.049-6.073-2.234-1.027-.698-2.369-1.976-3.142-2.993-.81-1.065-1.91-3.31-2.227-4.542-.83-3.226-.52-6.345.925-9.282.788-1.605 1.587-2.701 2.799-3.845a13.264 13.264 0 0 1 18.278 0 16.434 16.434 0 0 1 1.497 1.646c.81 1.065 1.91 3.309 2.227 4.542.326 1.268.548 3.328.438 4.065l-.088.585-.2-.31c-.11-.17-.544-.704-.963-1.187-.69-.797-.777-.96-.922-1.75-.26-1.407-.073-1.309-2.503-1.309H8.237l.027 1.638L8.291.67l-.937.536-.938.536-.073-2.027c-.04-1.114-.113-2.092-.163-2.173-.067-.108-1.252-.147-4.462-.147-4.046 0-4.379.016-4.462.219-.117.285-.117 6.027 0 6.312.082.2.363.22 3.346.22H3.86l-.254.497c-.14.274-.298.71-.352.969l-.098.47-2.767.063-2.767.063.406 1.25c.807 2.486 2.074 4.275 3.234 4.568l.53.133.004.993c.003.92-.015.992-.25.977-.14-.01-.696-.064-1.237-.12zm-3.21-3.645c-.455-.874-1.09-2.585-1.37-3.688l-.134-.53h-3.868l.33.53c1.049 1.684 2.722 3.236 4.445 4.123.504.259.95.47.993.47.042.001-.135-.407-.395-.905zM-4.833.77v-3.375h-4.295l-.221.969c-.295 1.294-.295 3.518 0 4.812l.22.97H-4.833zm.49-5.531c.597-2.129.835-2.813 1.317-3.795.317-.646.547-1.173.51-1.172-.152.003-1.526.749-2.176 1.18-.887.59-2.3 1.998-2.88 2.873-.762 1.148-.856 1.07 1.292 1.07 1.407 0 1.904-.04 1.937-.156zm10.141 0c-.852-2.73-1.445-3.953-2.383-4.914-1.155-1.183-2.173-1.186-3.35-.01-.953.953-1.54 2.156-2.404 4.924-.038.123.832.156 4.069.156 3.236 0 4.107-.033 4.068-.156zm5.76-.034c-.318-.829-1.904-2.639-3.104-3.541-.57-.428-2.282-1.391-2.477-1.393-.037 0 .2.548.526 1.218.326.67.74 1.753.92 2.406.18.653.349 1.258.375 1.344.036.116.537.156 1.941.156 1.642 0 1.883-.025 1.82-.19z" transform="translate(14.271 15.229)"/></svg>
